X:064 
T:Gerry Commane's (reel) 
B:CRE3.203	(RÃÂÃÂÃÂÃÂ­l GhearÃÂÃÂÃÂÃÂ³id UÃÂÃÂÃÂÃÂ­ ChomÃÂÃÂÃÂÃÂ¡in)
F:file ID: cre.3/064gerr_c
R:reel
L:1/8
Q:180
M:C
K:G
fe|d2ed cAGE|A3G AB (3cBA|d2ed dcAG|DGGF GGAG|
(3FGA EF DEFG|AAdc defg|a2ge fded|fdAF G2:|
|:fg|a3b agfg|a2af g2fg|adba agfe|defd g2fg|
a3g ffed|dAAA f3g|a2ge fded|fdAF G2:|

%%%

